public/tech/astro.svg

<?xml version="1.0" encoding="UTF-8"?>
<svg width="512px" height="135px" viewBox="0 0 512 135" version="1.1" xmlns="http://www.w3.org/2000/svg" xmlns:xlink="http://www.w3.org/1999/xlink" preserveAspectRatio="xMidYMid">
    <title>Astro</title>
    <defs>
        <linearGradient x1="0.000291601921%" y1="91.2689874%" x2="116.842365%" y2="41.1154506%" id="linearGradient-1">
            <stop stop-color="#D83333" offset="0%"></stop>
            <stop stop-color="#F041FF" offset="100%"></stop>
        </linearGradient>
    </defs>
    <g>
        <g>
            <path d="M34.6977097,114.617928 C28.6183506,109.060287 26.8436735,97.3838593 29.3765043,88.9249418 C33.7682515,94.2578546 39.8532625,95.9480233 46.1562729,96.9007617 C55.8865848,98.3729309 65.4426316,97.8225495 74.4818045,93.3750913 C75.5158217,92.8664259 76.471386,92.1882054 77.6013499,91.5032564 C78.4493947,93.9631516 78.6702201,96.447269 78.3739023,98.9757936 C77.6535621,105.133606 74.5891894,109.890569 69.7152866,113.495634 C67.7663444,114.938199 65.7040964,116.227356 63.6912347,117.587834 C57.5073166,121.766157 55.8343726,126.667108 58.1579508,133.796498 C58.2131235,133.97009 58.2625098,134.143682 58.3875231,134.56757 C55.2301642,133.154611 52.9239451,131.097073 51.1666272,128.392264 C49.3106713,125.536741 48.4276389,122.37844 48.3812131,118.961769 C48.3579329,117.298514 48.3579329,115.620456 48.1342816,113.981423 C47.5882064,109.984767 45.7117962,108.195018 42.1769753,108.091401 C38.5491682,107.986438 35.6793801,110.228334 34.9184005,113.760733 C34.8602673,114.031213 34.776028,114.299003 34.6919233,114.613891 L34.6977097,114.617928 Z" fill="#FFFFFF"></path>
            <path d="M34.6977097,114.617928 C28.6183506,109.060287 26.8436735,97.3838593 29.3765043,88.9249418 C33.7682515,94.2578546 39.8532625,95.9480233 46.1562729,96.9007617 C55.8865848,98.3729309 65.4426316,97.8225495 74.4818045,93.3750913 C75.5158217,92.8664259 76.471386,92.1882054 77.6013499,91.5032564 C78.4493947,93.9631516 78.6702201,96.447269 78.3739023,98.9757936 C77.6535621,105.133606 74.5891894,109.890569 69.7152866,113.495634 C67.7663444,114.938199 65.7040964,116.227356 63.6912347,117.587834 C57.5073166,121.766157 55.8343726,126.667108 58.1579508,133.796498 C58.2131235,133.97009 58.2625098,134.143682 58.3875231,134.56757 C55.2301642,133.154611 52.9239451,131.097073 51.1666272,128.392264 C49.3106713,125.536741 48.4276389,122.37844 48.3812131,118.961769 C48.3579329,117.298514 48.3579329,115.620456 48.1342816,113.981423 C47.5882064,109.984767 45.7117962,108.195018 42.1769753,108.091401 C38.5491682,107.986438 35.6793801,110.228334 34.9184005,113.760733 C34.8602673,114.031213 34.776028,114.299003 34.6919233,114.613891 L34.6977097,114.617928 Z" fill="url(#linearGradient-1)"></path>
            <path d="M0,87.5146736 C0,87.5146736 18.0017767,78.7458471 36.0538817,78.7458471 L49.664584,36.6232371 C50.1741914,34.5861532 51.6619705,33.201722 53.3416429,33.201722 C55.0213153,33.201722 56.5092289,34.5861532 57.0188363,36.6232371 L70.6294041,78.7458471 C92.0092305,78.7458471 106.683824,87.5146736 106.683824,87.5146736 C106.683824,87.5146736 76.1057659,4.21600198 76.0460179,4.04886905 C75.1683682,1.58614795 73.6869138,0 71.6895274,0 L34.996988,0 C32.9996016,0 31.5778952,1.58614795 30.6404975,4.04886905 C30.5744248,4.21290692 0,87.5146736 0,87.5146736 Z" fill="#17191E"></path>
        </g>
        <path d="M189.798138,60.720521 C189.798138,68.1018214 180.616593,72.5101204 167.903994,72.5101204 C159.629435,72.5101204 156.703936,70.4597144 156.703936,66.1539558 C156.703936,61.6431163 160.335914,59.4903043 168.609129,59.4903043 C176.076283,59.4903043 182.431909,59.5927102 189.798138,60.5154401 L189.798138,60.720521 Z M189.899064,51.5963015 C185.358754,50.5711657 178.497154,49.9560574 170.324865,49.9560574 C146.513133,49.9560574 135.31442,55.5945731 135.31442,68.7169298 C135.31442,82.3519888 142.98208,87.5806118 160.739617,87.5806118 C175.773506,87.5806118 185.962962,83.7872865 189.697212,74.457986 L190.301421,74.457986 L190.213603,76.4740523 C190.158837,77.7996247 190.115165,79.0698058 190.103804,80.1739101 L190.100915,80.7116101 C190.100915,85.4229942 190.871548,85.9196981 194.584023,85.9394472 L213.406673,85.9400985 C212.423975,83.1451761 211.825288,75.3932005 211.794459,68.5518718 L211.793207,67.9992809 C211.793207,60.5154401 212.094639,54.8769243 212.094639,47.2905429 C212.094639,31.8101588 202.813514,21.9682904 173.754992,21.9682904 C161.244245,21.9682904 147.320539,24.121237 136.72738,27.2993193 C137.735291,31.5025373 139.14825,40.0116485 139.85473,45.5476238 C149.036275,41.2418652 162.051651,39.3965401 172.141527,39.3965401 C186.063888,39.3965401 189.899064,42.5746224 189.899064,49.0333276 L189.899064,51.5963015 Z M240.836926,65.0262796 C238.819489,65.2722691 236.219859,65.321467 233.452805,65.3313066 L231.352604,65.3337665 C227.619699,65.3337665 224.189572,65.2313606 221.868281,64.9237391 C221.868281,65.7439284 221.767356,66.6665237 221.767356,67.486713 C221.767356,80.3015827 230.142841,87.7851545 259.60372,87.7851545 C287.348861,87.7851545 296.328555,80.4041232 296.328555,67.3841725 L296.321297,66.6535266 C296.082326,54.8418153 289.849961,49.0066724 264.043104,47.7005703 L261.62719,47.5809924 C243.802894,46.6142341 241.823816,44.5099069 241.747669,42.1160378 L241.745257,41.9595141 C241.745257,38.9865128 244.367979,37.4486746 258.089834,37.4486746 L259.838022,37.459123 C272.633459,37.6171267 276.150148,39.5698139 276.150148,43.4973523 L276.150148,44.4199475 L277.542772,44.3592576 C279.49532,44.2854607 282.185282,44.2232451 284.974555,44.2157564 L286.719148,44.2187943 C289.896641,44.2390256 293.145135,44.3401938 295.118793,44.522488 C295.118793,43.5997582 295.219718,42.7797034 295.219718,42.0620546 C295.219718,26.9916978 282.707626,22.0708309 258.493537,22.0708309 C231.251678,22.0708309 222.070133,28.734617 222.070133,41.7544331 C222.070133,53.4416266 229.436362,60.720521 255.568038,61.8481973 L257.960513,61.9360436 C275.016511,62.6500224 276.957553,64.7441232 276.957553,67.5892535 L276.949494,67.8612233 C276.767526,70.8493356 273.438319,72.2026335 260.310199,72.2026335 L259.122757,72.1982743 C244.763971,72.090724 240.938397,69.9922644 240.838934,65.8119989 L240.836926,65.0262796 Z M329.629992,10.9987458 C322.265109,17.8676128 309.047882,24.7363453 301.682999,26.5816704 L301.711633,27.8777492 C301.783924,31.8072833 301.783924,37.7454173 301.783924,41.1393247 L308.543253,41.2418652 L308.424397,50.8150754 C308.37922,55.0277284 308.346381,59.1401091 308.34192,62.4353468 L308.341402,63.1809545 C308.341402,76.815879 315.504434,87.0679093 337.80228,87.0679093 C347.185677,87.0679093 353.441723,86.042639 361.210309,84.4023949 C360.402904,79.3788529 359.494573,71.6899311 359.191796,65.8464689 C354.551906,67.3841725 348.699562,68.2043619 342.241664,68.2043619 C333.26197,68.2043619 329.629992,65.7439284 329.629992,58.670115 L329.634845,52.1224634 C329.643337,48.3978739 329.666692,44.8393335 329.730917,41.4469462 L336.951452,41.5243706 C345.866307,41.6357859 354.15826,41.7976081 359.494573,41.9595141 C359.393647,36.6284852 359.595498,28.9395634 359.898275,23.8136155 L356.399233,23.8817393 C347.551249,24.0414044 338.046006,24.121237 330.033694,24.121237 L330.336471,10.9987458 L329.629992,10.9987458 Z M390.698101,38.1663234 L389.890695,38.0637829 L390.171845,24.7601069 C390.179054,24.4439135 390.186263,24.1285036 390.193472,23.8136155 L369.912794,23.8136155 L369.984168,26.0878104 C370.215571,34.2078025 370.215571,42.7855898 370.215571,54.8769243 L370.20346,62.3493054 C370.171164,71.7351027 370.074275,78.9688524 369.912794,85.9400985 L393.118971,85.9400985 C392.741314,80.185859 392.628626,70.7531392 392.615657,62.3420801 L392.614343,60.6179805 C392.614343,46.6754346 398.264835,42.6771629 411.078359,42.6771629 C417.031629,42.6771629 421.269161,43.3948118 425.002066,44.727569 C425.102992,39.4990806 426.112248,29.3497253 426.716457,24.8388858 C423.095617,23.7738583 419.114685,23.074565 414.34855,23.0001529 L413.49923,22.9935607 C402.502368,22.8910202 394.431005,27.4018598 390.698101,38.1663234 Z M490.913262,54.4667623 C490.913262,65.6413879 482.841899,70.8698763 470.129301,70.8698763 C457.517628,70.8698763 449.446265,65.9488748 449.446265,54.4667623 C449.446265,43.1337682 457.407665,38.7919396 469.644072,38.6810762 L470.129301,38.6788913 C482.740973,38.6788913 490.913262,43.2922713 490.913262,54.4667623 Z M512,53.9541945 C512,31.7076183 494.646166,21.763344 470.129301,21.763344 C445.511509,21.763344 428.763229,31.7076183 428.763229,53.9541945 C428.763229,76.0983647 444.401327,87.9910428 470.028375,87.9910428 C495.857274,87.9910428 512,76.0983647 512,53.9541945 Z" fill="#17191E"></path>
    </g>
</svg>

<svg xmlns="http://www.w3.org/2000/svg" width="512" height="135" preserveAspectRatio="xMidYMid" viewBox="0 0 512 135"><title>Astro</title><defs><linearGradient id="a" x1="0%" x2="116.842%" y1="91.269%" y2="41.115%"><stop offset="0%" stop-color="#d83333"/><stop offset="100%" stop-color="#f041ff"/></linearGradient></defs><path fill="#fff" d="M34.698 114.618c-6.08-5.558-7.854-17.234-5.321-25.693 4.391 5.333 10.476 7.023 16.78 7.976 9.73 1.472 19.286.922 28.325-3.526 1.034-.509 1.99-1.187 3.12-1.872.847 2.46 1.068 4.944.772 7.473-.72 6.158-3.785 10.915-8.659 14.52-1.949 1.442-4.01 2.731-6.024 4.092-6.184 4.178-7.857 9.08-5.533 16.208.055.174.105.348.23.772-3.158-1.413-5.464-3.47-7.221-6.176-1.856-2.855-2.74-6.014-2.786-9.43-.023-1.663-.023-3.342-.247-4.98-.546-3.997-2.422-5.787-5.957-5.89-3.628-.106-6.498 2.136-7.259 5.669-.058.27-.142.538-.226.853z"/><path fill="url(#a)" d="M34.698 114.618c-6.08-5.558-7.854-17.234-5.321-25.693 4.391 5.333 10.476 7.023 16.78 7.976 9.73 1.472 19.286.922 28.325-3.526 1.034-.509 1.99-1.187 3.12-1.872.847 2.46 1.068 4.944.772 7.473-.72 6.158-3.785 10.915-8.659 14.52-1.949 1.442-4.01 2.731-6.024 4.092-6.184 4.178-7.857 9.08-5.533 16.208.055.174.105.348.23.772-3.158-1.413-5.464-3.47-7.221-6.176-1.856-2.855-2.74-6.014-2.786-9.43-.023-1.663-.023-3.342-.247-4.98-.546-3.997-2.422-5.787-5.957-5.89-3.628-.106-6.498 2.136-7.259 5.669-.058.27-.142.538-.226.853z"/><path fill="#17191e" d="M0 87.515s18.002-8.77 36.054-8.77l13.61-42.122c.51-2.037 1.998-3.421 3.678-3.421s3.167 1.384 3.677 3.421l13.61 42.123c21.38 0 36.055 8.769 36.055 8.769S76.106 4.216 76.046 4.049C75.168 1.586 73.686 0 71.69 0H34.997C33 0 31.577 1.586 30.64 4.049 30.574 4.213 0 87.515 0 87.515M189.798 60.72c0 7.382-9.181 11.79-21.894 11.79-8.275 0-11.2-2.05-11.2-6.356 0-4.51 3.632-6.664 11.905-6.664 7.467 0 13.823.103 21.19 1.025zm.101-9.124c-4.54-1.025-11.402-1.64-19.574-1.64-23.812 0-35.01 5.639-35.01 18.76 0 13.636 7.667 18.865 25.425 18.865 15.034 0 25.223-3.794 28.957-13.123h.604l-.087 2.016a124 124 0 0 0-.11 3.7l-.003.538c0 4.711.77 5.208 4.483 5.227l18.823.001c-.983-2.795-1.582-10.547-1.613-17.388v-.553c0-7.484.3-13.122.3-20.708 0-15.48-9.28-25.323-38.339-25.323-12.51 0-26.434 2.153-37.028 5.331 1.008 4.204 2.421 12.713 3.128 18.249 9.181-4.306 22.197-6.151 32.287-6.151 13.922 0 17.757 3.178 17.757 9.636zm50.938 13.43c-2.018.246-4.617.295-7.384.305l-2.1.003c-3.733 0-7.163-.103-9.485-.41 0 .82-.1 1.743-.1 2.563 0 12.815 8.375 20.298 37.836 20.298 27.745 0 36.725-7.38 36.725-20.4l-.008-.731c-.239-11.812-6.471-17.647-32.278-18.953l-2.416-.12c-17.824-.967-19.803-3.071-19.88-5.465l-.002-.156c0-2.973 2.623-4.511 16.345-4.511l1.748.01c12.795.158 16.312 2.11 16.312 6.038v.923l1.393-.06a217 217 0 0 1 7.432-.144l1.744.003c3.178.02 6.426.121 8.4.303 0-.922.1-1.742.1-2.46 0-15.07-12.511-19.991-36.725-19.991-27.242 0-36.424 6.664-36.424 19.683 0 11.688 7.366 18.967 33.498 20.094l2.393.088c17.056.714 18.997 2.808 18.997 5.653l-.009.272c-.181 2.988-3.51 4.342-16.639 4.342l-1.187-.005c-14.359-.107-18.185-2.206-18.284-6.386zM329.63 11c-7.365 6.869-20.582 13.737-27.947 15.583l.029 1.296c.072 3.93.072 9.867.072 13.261l6.76.103-.12 9.573c-.045 4.213-.078 8.325-.082 11.62v.746c0 13.635 7.162 23.887 29.46 23.887 9.384 0 15.64-1.025 23.408-2.666-.807-5.023-1.715-12.712-2.018-18.556-4.64 1.538-10.492 2.358-16.95 2.358-8.98 0-12.612-2.46-12.612-9.534l.005-6.548c.008-3.724.032-7.283.096-10.675l7.22.077c8.915.112 17.207.274 22.544.436-.101-5.332.1-13.02.403-18.146l-3.499.068c-8.848.16-18.353.24-26.365.24L330.336 11zm61.068 27.167-.807-.102.28-13.304.022-.946h-20.28l.071 2.274c.232 8.12.232 16.698.232 28.789l-.013 7.472c-.032 9.386-.129 16.62-.29 23.591h23.206c-.378-5.754-.49-15.187-.503-23.598l-.002-1.724c0-13.943 5.65-17.94 18.464-17.94 5.954 0 10.191.717 13.924 2.05.101-5.229 1.11-15.378 1.714-19.89-3.62-1.064-7.601-1.763-12.367-1.838l-.85-.006c-10.997-.103-19.068 4.408-22.8 15.172m100.215 16.3c0 11.175-8.071 16.404-20.784 16.404-12.611 0-20.683-4.921-20.683-16.403 0-11.333 7.962-15.675 20.198-15.786l.485-.002c12.612 0 20.784 4.613 20.784 15.788M512 53.955c0-22.246-17.354-32.19-41.87-32.19-24.618 0-41.367 9.944-41.367 32.19 0 22.144 15.638 34.037 41.265 34.037 25.83 0 41.972-11.893 41.972-34.037"/></svg>
